storage/app/icons/phosphoricons/duotone/car-battery-duotone.svg

<svg xmlns="http://www.w3.org/2000/svg" fill="currentColor" viewBox="0 0 256 256"><path d="M232 88v96a8 8 0 0 1-8 8H32a8 8 0 0 1-8-8V88a8 8 0 0 1 8-8h192a8 8 0 0 1 8 8" opacity=".2"/><path d="M192 136a8 8 0 0 1-8 8h-8v8a8 8 0 0 1-16 0v-8h-8a8 8 0 0 1 0-16h8v-8a8 8 0 0 1 16 0v8h8a8 8 0 0 1 8 8m-88-8H72a8 8 0 0 0 0 16h32a8 8 0 0 0 0-16m136-40v96a16 16 0 0 1-16 16H32a16 16 0 0 1-16-16V88a16 16 0 0 1 16-16h16V56a16 16 0 0 1 16-16h32a16 16 0 0 1 16 16v16h32V56a16 16 0 0 1 16-16h32a16 16 0 0 1 16 16v16h16a16 16 0 0 1 16 16m-80-16h32V56h-32Zm-96 0h32V56H64Zm160 112V88H32v96z"/></svg>

<svg xmlns="http://www.w3.org/2000/svg" viewBox="0 0 256 256" fill="currentColor"><path d="M232,88v96a8,8,0,0,1-8,8H32a8,8,0,0,1-8-8V88a8,8,0,0,1,8-8H224A8,8,0,0,1,232,88Z" opacity="0.2"/><path d="M192,136a8,8,0,0,1-8,8h-8v8a8,8,0,0,1-16,0v-8h-8a8,8,0,0,1,0-16h8v-8a8,8,0,0,1,16,0v8h8A8,8,0,0,1,192,136Zm-88-8H72a8,8,0,0,0,0,16h32a8,8,0,0,0,0-16ZM240,88v96a16,16,0,0,1-16,16H32a16,16,0,0,1-16-16V88A16,16,0,0,1,32,72H48V56A16,16,0,0,1,64,40H96a16,16,0,0,1,16,16V72h32V56a16,16,0,0,1,16-16h32a16,16,0,0,1,16,16V72h16A16,16,0,0,1,240,88ZM160,72h32V56H160ZM64,72H96V56H64ZM224,184V88H32v96H224Z"/></svg>
